!!!!SEGMENT: pl-kk--kk-i-7--049-004_samin-vulfran--missa-sancti-spiritus-agnus-dei.krn
!!!cenid: 16xx:863
!!!COM: Samin, Vulfran
!!!COM-rismid: pe30102784
!!!CDT: <1543->1559
!!!CNT: French
!!!OPR: Missa Sancti Spiritus
!!!OTL: Agnus Dei
!!!OMV: 004
!!!PDT:
!!!AGN: Sacred; Mass
!!!SMS-siglum: PL-Kk
!!!SMS-shelfmark: Kk.I.7
!!!SMS-shelfwork: 049-004 M
!!!SMS-variant:
!!!SMS-altvar:
!!!NIFC-rismid: 300258126
!!!URL-scan: http://repozytorium.nifc.pl/skany/pl-kk-nut--i-7
!!!ONB-nifc: UWAGA: C (skan 0044-0046, s.83-86), A (0129-0130, s.78-80), T(0205-0206, s.73-75), B(0294, s.74-75). Części Mszy: 1. Kyrie, 2. Et in terra, 3. Sanctus, 4. Agnus Dei
**kern	**text	**kern	**text	**kern	**text	**kern	**text
*part4	*part4	*part3	*part3	*part2	*part2	*part1	*part1
*staff4	*staff4	*staff3	*staff3	*staff2	*staff2	*staff1	*staff1
*Ibass	*	*Itenor	*	*Ialto	*	*Ivox	*
*I"[BASSVS.]	*	*I"[TENOR.]	*	*I"[ALTVS.]	*	*I"[CANTVS.]	*
*I'[B]	*	*I'[T]	*	*I'[A]	*	*I'[C]	*
*clefF4	*	*clefC4	*	*clefC3	*	*clefC1	*
*k[]	*	*k[]	*	*k[]	*	*k[]	*
*G:	*	*G:	*	*G:	*	*G:	*
*M2/1	*	*M2/1	*	*M2/1	*	*M2/1	*
*met(C|)	*	*met(C|)	*	*met(C|)	*	*met(C|)	*
=1-	=1-	=1-	=1-	=1-	=1-	=1-	=1-
!LO:TX:t=P:problem:kreska pseudotaktowa	!	!	!	!	!	!	!
!LO:TX:t=P:problem:przed kluczem inicjał A	!	!LO:TX:t=P:problem:przed kluczem inicjał A	!	!LO:TX:t=P:problem:przed kluczem inicjał A	!	!LO:TX:t=P:problem:przed kluczem inicjał A	!
0r	.	1.G	A-	0r	.	0r	.
.	.	2G/	-gnus	.	.	.	.
=2-	=2-	=2-	=2-	=2-	=2-	=2-	=2-
1.C	A-	2A/	De-	0r	.	0r	.
.	.	2G/	.	.	.	.	.
!	!	!LO:TX:t=P:problem:kreska pseudotaktowa	!	!	!	!	!
.	.	1c	.	.	.	.	.
2C/	-gnus	.	.	.	.	.	.
=3-	=3-	=3-	=3-	=3-	=3-	=3-	=3-
*	*	*2\right	*	*	*	*	*
!	!	!	!	!LO:TX:t=P:problem:kreska pseudotaktowa	!	!	!
2D/	De-	2B\	-i	1rd	.	0r	.
2C/	.	2.c\	A-	.	.	.	.
!LO:TX:t=P:problem:kreska pseudotaktowa	!	!	!	!	!	!	!
1F	-i	.	.	1.c	A-	.	.
.	.	4B\	.	.	.	.	.
!	!	!LO:TX:t=P:problem:kreska pseudotaktowa	!	!	!	!	!
.	.	2A/	.	.	.	.	.
=4-	=4-	=4-	=4-	=4-	=4-	=4-	=4-
*2\right	*ij	*	*	*	*	*	*
2E\	A-	2G,</	-gn(us)	.	.	0r	.
*	*	*	*	*2\right	*	*	*
1F	-gnus	1A	De-	2c\	-gn(us)	.	.
.	.	.	.	2d\	De-	.	.
2E\	De-	2G/	.	2c,<\	-i	.	.
=5-	=5-	=5-	=5-	=5-	=5-	=5-	=5-
*	*	*	*	*	*ij	*	*
!	!	!	!	!LO:TX:t=P:problem:kreska pseudotaktowa	!	!LO:TX:t=P:problem:kreska pseudotaktowa	!
1D	.	2A/	.	1f	A-	0r	.
.	.	2F/	.	.	.	.	.
0C	.	2G/	.	2e\	.	.	.
.	.	2A/	.	1f\	-gn(us)	.	.
=6-	=6-	=6-	=6-	=6-	=6-	=6-	=6-
!	!	!LO:TX:t=P:problem:kreska pseudotaktowa	!	!	!	!	!
.	.	0G	-i	.	.	1.g	A-
.	.	.	.	2e\	De-	.	.
!LO:TX:t=P:problem:kreska pseudotaktowa	!	!	!	!	!	!	!
1GG	-i	.	.	0d	.	.	.
*	*Xij	*	*	*	*	*	*
.	.	.	.	.	.	2g/	-gnus
=7-	=7-	=7-	=7-	=7-	=7-	=7-	=7-
*	*	*	*	*	*	*2\right	*
0r	.	2r	.	.	.	2a\	De-
!	!	!	!	!	!	!LO:TX:t=P:problem:kreska pseudotaktowa	!
.	.	2G/	Ag-	.	.	2g\	-i
.	.	1A	-nus	2c,</	-i	1cc	a-
*	*	*	*	*	*Xij	*	*
.	.	.	.	2c/	A-	.	.
=8-	=8-	=8-	=8-	=8-	=8-	=8-	=8-
0r	.	2G/	.	2d\	.	2b\	.
.	.	2A/	De-	2c/	-gn(us)	2cc\	.
!	!	!	!	!LO:TX:t=P:problem:kreska pseudotaktowa	!	!	!
.	.	4F/	.	1f	De-	0a	.
.	.	4G/	.	.	.	.	.
.	.	4A/	.	.	.	.	.
!	!	!LO:TX:t=P:problem:kreska pseudotaktowa	!	!	!	!	!
.	.	4B/	.	.	.	.	.
=9-	=9-	=9-	=9-	=9-	=9-	=9-	=9-
2r	.	2c\	.	2e,<\	-i	.	.
*	*	*	*	*	*ij	*	*
!LO:TX:t=P:problem:kreska pseudotaktowa	!	!	!	!	!	!	!
2D\	A-	2d\	.	2f\	A-	.	.
2E\	.	2G/	.	2g\	.	2g/	-gnus
2D\	-gnus	2A/	.	2f\	.	2.dd\	.
=10-	=10-	=10-	=10-	=10-	=10-	=10-	=10-
1G	.	1B	.	2d\	-gn(us)	.	.
.	.	.	.	.	.	4cc\	De-
!	!	!	!	!	!	!LO:TX:t=P:problem:kreska pseudotaktowa	!
.	.	.	.	2e\	.	2b\	.
2F\	De-	2c\	.	4f\	De-	2a\	.
.	.	.	.	4e\	.	.	.
2.G\	.	2B\	.	4d\	.	2.b\	.
!	!	!	!	!LO:TX:t=P:problem:kreska pseudotaktowa	!	!	!
.	.	.	.	4c\	.	.	.
=11-	=11-	=11-	=11-	=11-	=11-	=11-	=11-
*	*	*lig	*	*	*	*	*
.	.	1G	.	2B/	.	.	.
4F\	.	.	.	.	.	4a\	.
!LO:TX:t=P:problem:kreska pseudotaktowa	!	!	!	!	!	!	!
2E\	.	.	.	2c/	.	1g	.
1D	.	1A	.	1d	.	.	.
.	.	.	.	.	.	2f/	.
*	*	*Xlig	*	*	*	*	*
=12-	=12-	=12-	=12-	=12-	=12-	=12-	=12-
!	!	!	!	!	!	!LO:TX:t=P:problem:kreska pseudotaktowa	!
2GG,</	-i	1G	.	2B,</	-i	1g	-i
*	*	*	*	*	*Xij	*	*
!LO:TX:t=P:problem:podwójna kreska pseudotaktowa	!	!	!	!	!	!	!
*	*ij	*	*	*	*	*	*
2C/	A-	.	.	2e\	ag-	.	.
2D/	.	2F/	.	2d\	-n(us)	2r	.
2.C/	-gnus	2G/	.	2e\	De-	2g/	Qui
=13-	=13-	=13-	=13-	=13-	=13-	=13-	=13-
!	!	!	!	!LO:TX:t=P:problem:kreska pseudotaktowa	!	!	!
.	.	2E/	.	1c	-i	2g/	tol-
4D\	.	.	.	.	.	.	.
!LO:TX:t=P:problem:kreska pseudotaktowa	!	!	!	!	!	!	!
2E\	.	2G/	.	.	.	2g/	-lis
2D/	De-	1A	.	2r	.	2f/	.
2.C/	.	.	.	2c/	qui	2e/	pec-
=14-	=14-	=14-	=14-	=14-	=14-	=14-	=14-
!	!	!LO:TX:t=P:problem:kreska pseudotaktowa	!	!	!	!	!
.	.	1G	-i,	2c/	tol-	1.g	-ca-
4D\	.	.	.	.	.	.	.
4E\	.	.	.	2c/	-lis	.	.
!LO:TX:t=P:problem:kreska pseudotaktowa	!	!	!	!	!	!	!
4F\	.	.	.	.	.	.	.
!	!	!LO:TX:t=P:problem:kreska pseudotaktowa	!	!	!	!	!
!	!	!LO:LB:g=original	!	!	!	!	!
2G\	.	1rf	.	2B/	pec-	.	.
!	!	!	!	!	!	!LO:TX:t=P:problem:kreska pseudotaktowa	!
2F\	.	.	.	2A/	-ca-	2a\	-ta
=15-	=15-	=15-	=15-	=15-	=15-	=15-	=15-
!LO:TX:t=P:problem:kreska pseudotaktowa	!	!	!	!	!	!	!
1C	-i	1G	Qui	2c\	-ta	2g\	.
*	*Xij	*	*	*	*	*	*
!	!	!	!	!LO:TX:t=P:problem:kreska pseudotaktowa	!	!	!
!	!	!	!	!LO:SIC:v:t=custos d	!	!	!
.	.	.	.	2e\	pec-	1cc	mun-
!LO:TX:t=P:problem:kreska pseudotaktowa	!	!	!	!	!	!	!
!LO:SIC:v:t=custos C	!	!	!	!LO:LB:g=original	!	!	!
1rD	.	2G/	tol-	1.d	-ca-	.	.
.	.	2G/	-lis	.	.	2b\	.
=16-	=16-	=16-	=16-	=16-	=16-	=16-	=16-
!LO:LB:g=original	!	!	!	!	!	!	!
2r	.	2F/	pec-	.	.	2a\	.
!LO:TX:t=P:problem:kreska pseudotaktowa	!	!	!	!	!	!	!
2C/	qui	2E/	-ca-	2e\	.	4g/	.
.	.	.	.	.	.	4f/	.
!	!	!	!	!	!	!LO:TX:t=P:problem:kreska pseudotaktowa	!
2C/	tol-	1.G	-ta	1c	.	1e	-di
2C/	-lis	.	.	.	.	.	.
=17-	=17-	=17-	=17-	=17-	=17-	=17-	=17-
2BB/	pec-	.	.	2d\	.	1rdd	.
!LO:TX:t=P:problem:kreska pseudotaktowa	!	!	!	!	!	!	!
2AA/	-ca-	2A/	mun-	2.c/	-ta	.	.
!	!	!LO:TX:t=P:problem:kreska pseudotaktowa	!	!	!	!	!
1C	-ta	0G	-di	.	.	2r	.
.	.	.	.	4B/	.	.	.
.	.	.	.	4c/	.	2cc\	qui
.	.	.	.	4d/	.	.	.
=18-	=18-	=18-	=18-	=18-	=18-	=18-	=18-
1C	mun-	.	.	1e	mun-	2cc\	tol-
!	!	!	!	!	!	!LO:SIC:v:t=custos b	!
!	!	!	!	!	!	!LO:TX:t=P:problem:kreska pseudotaktowa	!
.	.	.	.	.	.	2cc\	-lis
!	!	!	!	!LO:TX:t=P:problem:kreska pseudotaktowa	!	!LO:LB:g=original	!
2GG,</	-di	0r	.	0d	-di,	1.b	.
*	*ij	*	*	*	*	*	*
!LO:TX:t=P:problem:kreska pseudotaktowa	!	!	!	!	!	!	!
2G\	qui	.	.	.	.	.	.
=19-	=19-	=19-	=19-	=19-	=19-	=19-	=19-
2G\	tol-	.	.	.	.	.	.
2G\	-lis	.	.	.	.	2b\	pec-
1F	pec-	2r	.	1r	.	1a	-ca-
.	.	2c\	qui	.	.	.	.
=20-	=20-	=20-	=20-	=20-	=20-	=20-	=20-
!LO:TX:t=P:problem:kreska pseudotaktowa	!	!	!	!	!	!	!
1E	-ca-	2c\	tol-	2r	.	2g/	-ta
.	.	2c\	-lis	2g\	qui	2e/	.
2.G\	-ta	1B	.	2g\	tol-	1d	pec-
.	.	.	.	2g\	-lis	.	.
4F\	mun-	.	.	.	.	.	.
=21-	=21-	=21-	=21-	=21-	=21-	=21-	=21-
!	!	!LO:TX:t=P:problem:kreska pseudotaktowa	!	!	!	!LO:TX:t=P:problem:kreska pseudotaktowa	!
2D/	-di	1A	pec-	2f\	pec-	1a	-ca-
*	*Xij	*	*	*	*	*	*
*	*ij	*	*	*	*	*	*
2.C/	qui	.	.	1e	-ca-	.	.
.	.	1c	-ca-	.	.	2.g\	.
4D\	tol-	.	.	.	.	.	.
4E\	-lis	.	.	1g\	-ta	.	.
4F\	pec-	.	.	.	.	4a\	.
=22-	=22-	=22-	=22-	=22-	=22-	=22-	=22-
2G\	-ca-	2B\	.	.	.	2b\	.
!LO:TX:t=P:problem:kreska pseudotaktowa	!	!LO:TX:t=P:problem:kreska pseudotaktowa	!	!	!	!	!
2A\	-ta	2c\	.	2f\	mun-	2a\	-ta
!	!	!	!	!LO:TX:t=P:problem:kreska pseudotaktowa	!	!	!
1G	mun-	2d\	.	1g	-di	2b\	mun-
.	.	2B\	.	.	.	2.dd\	.
=23-	=23-	=23-	=23-	=23-	=23-	=23-	=23-
2F,>\	-di	2c\	-ta	2rB	.	.	.
*	*Xij	*	*	*	*	*	*
.	.	.	.	.	.	4cc\	.
2C/	pec-	2e\	.	2G/	pec-	1cc	.
2F\	-ca-	1d	mun-	2A/	-ca-	.	.
2G\	-ta	.	.	2B/	-ta	2b\	.
=24-	=24-	=24-	=24-	=24-	=24-	=24-	=24-
!	!	!LO:TX:t=P:problem:kreska pseudotaktowa	!	!	!	!LO:TX:t=P:problem:kreska pseudotaktowa	!
1C	mun-	1c	-di	4G/	.	1cc	-di
.	.	.	.	4F/	.	.	.
.	.	.	.	4G/	.	.	.
.	.	.	.	4A/	.	.	.
!LO:TX:t=P:problem:kreska pseudotaktowa	!	!	!	!	!	!	!
1GG	-di	2r	.	4B/	mun-	1rdd	.
.	.	.	.	4c/	.	.	.
.	.	1B\	mi-	1d\	.	.	.
=25-	=25-	=25-	=25-	=25-	=25-	=25-	=25-
0r	.	.	.	.	.	1g	mi-
!	!	!	!	!LO:TX:t=P:problem:kreska pseudotaktowa	!	!	!
.	.	2c\	-ſe-	2e\	.	.	.
.	.	1A	-re-	2c,<\	-di	2a\	-se-
.	.	.	.	1e\	mi-	2cc\	-re-
=26-	=26-	=26-	=26-	=26-	=26-	=26-	=26-
0r	.	2G/	.	.	.	2b\	-re
!	!	!	!	!	!	!LO:TX:t=P:problem:kreska pseudotaktowa	!
.	.	2F/	.	2f\	-ſe-	2a\	no-
!	!	!LO:TX:t=P:problem:kreska pseudotaktowa	!	!LO:TX:t=P:problem:kreska pseudotaktowa	!	!	!
.	.	1G	-re	1d	-re-	2b,<\	-bis
.	.	.	.	.	.	2b\	.
=27-	=27-	=27-	=27-	=27-	=27-	=27-	=27-
*	*	*	*ij	*	*	*	*
!LO:TX:t=P:problem:kreska pseudotaktowa	!	!	!	!	!	!	!
0r	.	2A/	mi-	2.c/	.	2cc\	mi-
.	.	2F/	-ſe-	.	.	2a\	.
.	.	.	.	4B/	.	.	.
.	.	2C/	-re-	2c/	-re	2g/	-ſe-
.	.	2D/	-re	2A/	no-	2f/	-re-
*	*	*	*Xij	*	*	*	*
=28-	=28-	=28-	=28-	=28-	=28-	=28-	=28-
2rBB	.	4E/	no-	2G,</	-bis	1.g	.
.	.	4F/	.	.	.	.	.
*	*	*	*	*	*ij	*	*
1E	mi-	4G/	.	2B/	mi-	.	.
.	.	4A/	.	.	.	.	.
.	.	2G/	.	2c/	-ſe-	.	.
2F\	-ſe-	1c\	.	2.A/	-re-	2f/	.
=29-	=29-	=29-	=29-	=29-	=29-	=29-	=29-
1D	-re-	.	.	.	.	1f	.
.	.	.	.	4G/	.	.	.
.	.	4B\	.	2F/	.	.	.
!	!	!LO:TX:t=P:problem:kreska pseudotaktowa	!	!	!	!	!
.	.	4A\	.	.	.	.	.
2C/	.	2c\	.	1G	re	2e/	.
2BB/	-re	2d\	.	.	.	2.g/	.
=30-	=30-	=30-	=30-	=30-	=30-	=30-	=30-
1C	no-	1G,<	-bis	2.E/	-no-	.	.
.	.	.	.	.	.	4f/	.
!	!	!	!	!	!	!LO:TX:t=P:problem:kreska pseudotaktowa	!
.	.	.	.	.	.	2e/	-re
.	.	.	.	4F/	.	.	.
*	*	*	*ij	*	*	*	*
!LO:TX:t=P:problem:kreska pseudotaktowa	!	!	!	!LO:TX:t=P:problem:kreska pseudotaktowa	!	!	!
1GG	-bis	1.B	mi-	0G	-bis	2d/	.
*	*	*	*	*	*Xij	*	*
.	.	.	.	.	.	2.g/	no-
=31-	=31-	=31-	=31-	=31-	=31-	=31-	=31-
*	*ij	*	*	*	*	*	*
1E	mi-	.	.	.	.	.	.
.	.	.	.	.	.	4f/	.
.	.	1c	-ſe-	.	.	2g/	.
!	!	!	!	!LO:TX:t=P:problem:kreska pseudotaktowa	!	!	!
!	!	!	!	!LO:LB:g=original	!	!	!
1F	-ſe-	.	.	1r	.	1a	.
.	.	1A\	.	.	.	.	.
=32-	=32-	=32-	=32-	=32-	=32-	=32-	=32-
!	!	!	!	!	!	!LO:TX:t=P:problem:kreska pseudotaktowa	!
2D\	-re-	.	.	2r	.	1b	.
2E\	.	1G	-re-	1e	mi-	.	.
2C/	-re	.	.	.	.	2cc\	.
!LO:TX:t=P:problem:kreska pseudotaktowa	!	!LO:TX:t=P:problem:podwójna kreska pseudotaktowa	!	!	!	!	!
2D/	.	2F/	-re	2f\	-ſe-	1a\	.
=33-	=33-	=33-	=33-	=33-	=33-	=33-	=33-
*	*	*lig	*	*	*	*	*
1E	no-	1G	no-	2e\	-re-	.	.
.	.	.	.	2c\	-re	1g	.
1D	.	1A	.	1d	no-	.	.
!	!	!	!	!	!	!LO:TX:a:t=P:problem:# above	!
.	.	.	.	.	.	2f#X/	.
*	*	*Xlig	*	*	*	*	*
=34-	=34-	=34-	=34-	=34-	=34-	=34-	=34-
0GG;>	-bis	0G;	-bis.	0d;>	-bis.	0g;>	-bis.
*	*Xij	*	*Xij	*	*	*	*
!LO:LB:g=original	!	!LO:PB:g=original	!	!	!	!LO:LB:g=original	!
=35||	=35||	=35||-	=35||-	=35||	=35||	=35||	=35||
*M2/1	*	*M2/1	*	*M2/1	*	*M2/1	*
*met(C|)	*	*met(C|)	*	*met(C|)	*	*met(C|)	*
!LO:TX:t=P:problem:przed kluczem inicjał A	!	!LO:TX:t=P:problem:przed kluczem inicjał A	!	!LO:TX:t=P:problem:kreska pseudotaktowa	!	!	!
0r	.	0r	.	0r	.	1d	Ag-
!	!	!	!	!	!	!LO:TX:t=P:problem:kreska pseudotaktowa	!
.	.	.	.	.	.	1a	-n(us)
=36-	=36-	=36-	=36-	=36-	=36-	=36-	=36-
*	*	*	*	*	*	*lig	*
0r	.	0r	.	1G	Ag-	1bn	De-
.	.	.	.	1d	-n(us)	1a	.
*	*	*	*	*	*	*Xlig	*
=37-	=37-	=37-	=37-	=37-	=37-	=37-	=37-
*	*	*	*	*lig	*	*	*
!	!	!	!	!	!	!LO:TX:t=P:problem:kreska pseudotaktowa	!
0r	.	0r	.	1e	De-	1g	-i
.	.	.	.	1d	.	2r	.
.	.	.	.	.	.	1a\	Ag-
*	*	*	*	*Xlig	*	*	*
=38-	=38-	=38-	=38-	=38-	=38-	=38-	=38-
!	!	!	!	!LO:TX:t=P:problem:kreska pseudotaktowa	!	!	!
0r	.	0r	.	1c	-i	.	.
.	.	.	.	.	.	2g/	.
.	.	.	.	2r	.	2.f/	-n(us)
*	*	*	*	*	*ij	*	*
.	.	.	.	1d\	Ag-	.	.
.	.	.	.	.	.	4e/	.
=39-	=39-	=39-	=39-	=39-	=39-	=39-	=39-
!	!	!LO:TX:t=P:problem:kreska pseudotaktowa	!	!	!	!	!
0r	.	1r	.	.	.	2f/	De-
.	.	.	.	2c/	-n(us)	1g	.
.	.	1D	A-	4B/	.	.	.
.	.	.	.	4A/	.	.	.
!	!	!	!	!	!	!LO:TX:t=P:problem:kreska pseudotaktowa	!
.	.	.	.	1d\	De-	2f/	.
=40-	=40-	=40-	=40-	=40-	=40-	=40-	=40-
!LO:TX:t=P:problem:kreska pseudotaktowa	!	!LO:TX:t=P:problem:kreska pseudotaktowa	!	!	!	!	!
1r	.	1A	-gnus	.	.	1e	.
.	.	.	.	2c\	.	.	.
*	*	*lig	*	*	*	*	*
!	!	!	!	!LO:TX:t=P:problem:kreska pseudotaktowa	!	!	!
1GG	A-	1B	De-	0d	-i	2d/	.
*	*	*	*	*	*Xij	*	*
.	.	.	.	.	.	1g\	.
=41-	=41-	=41-	=41-	=41-	=41-	=41-	=41-
!LO:TX:t=P:problem:kreska pseudotaktowa	!	!	!	!	!	!	!
1D	-gnus	1A	.	.	.	.	.
.	.	.	.	.	.	2f/	.
*lig	*	*Xlig	*	*	*	*	*
!	!	!LO:TX:t=P:problem:kreska pseudotaktowa	!	!	!	!	!
1E	De-	1G	-i	1rd	.	2g/	.
!	!	!	!	!	!	!LO:TX:t=P:problem:kreska pseudotaktowa	!
.	.	.	.	.	.	2e/	.
=42-	=42-	=42-	=42-	=42-	=42-	=42-	=42-
1D	.	2r	.	1A	A-	2.f/	.
.	.	1A	Ag-	.	.	.	.
.	.	.	.	.	.	4g\	.
*Xlig	*	*	*	*	*	*	*
!LO:TX:t=P:problem:kreska pseudotaktowa	!	!	!	!	!	!	!
1C	.	.	.	1e	-gnus	4a\	.
.	.	.	.	.	.	4b\	.
.	.	2G/	.	.	.	2cc\	.
=43-	=43-	=43-	=43-	=43-	=43-	=43-	=43-
1.D	.	2F,</	-nus	1.f	De-	2a,>\	-i,
.	.	2.A\	De-	.	.	2d/	Ag-
!	!	!	!	!	!	!LO:TX:t=P:problem:kreska pseudotaktowa	!
.	.	.	.	.	.	1a	-n(us)
.	.	4B\	.	.	.	.	.
!LO:TX:t=P:problem:kreska pseudotaktowa	!	!LO:TX:t=P:problem:kreska pseudotaktowa	!	!LO:TX:t=P:problem:kreska pseudotaktowa	!	!	!
2C/	.	2c\	.	2e\	.	.	.
=44-	=44-	=44-	=44-	=44-	=44-	=44-	=44-
2BB/	.	2G/	.	2d\	.	2.b\	De-
2GG/	.	2B\	.	1g	.	.	.
.	.	.	.	.	.	4cc\	.
1.D	.	2A,>/	-i	.	.	2.dd\	.
.	.	2D/	ag-	4f\	.	.	.
.	.	.	.	4e\	.	8cc\L	.
.	.	.	.	.	.	8b\J	.
=45-	=45-	=45-	=45-	=45-	=45-	=45-	=45-
.	.	2A\	-nus	2f#X\	.	2a\	.
!LO:TX:t=P:problem:kreska pseudotaktowa	!	!LO:TX:t=P:problem:kreska pseudotaktowa	!	!	!	!	!
2GG/	.	2B\	.	1g	.	2g\	.
1D	.	2.A/	De-	.	.	2.a\	.
.	.	.	.	2f#\	.	.	.
!	!	!	!	!	!	!LO:TX:t=P:problem:kreska pseudotaktowa	!
.	.	8G/L	.	.	.	4b\	.
.	.	8F/J	.	.	.	.	.
=46-	=46-	=46-	=46-	=46-	=46-	=46-	=46-
*lig	*	*	*	*	*	*	*
!	!	!	!	!LO:TX:t=P:problem:kreska pseudotaktowa	!	!	!
1C	.	4E/	.	1g	-i	2cc\	.
.	.	4C/	.	.	.	.	.
.	.	1c	.	.	.	2.g\	.
!LO:TX:t=P:problem:kreska pseudotaktowa	!	!	!	!	!	!	!
1GG	-i.	.	.	2rB	.	.	.
.	.	.	.	.	.	4a\	.
*	*	*	*	*	*ij	*	*
.	.	4B\	.	2G/	A-	1b\	.
!	!	!LO:TX:t=P:problem:kreska pseudotaktowa	!	!	!	!	!
.	.	4A\	.	.	.	.	.
*Xlig	*	*	*	*	*	*	*
=47-	=47-	=47-	=47-	=47-	=47-	=47-	=47-
1rD	.	2B\	.	2d\	-gnus	.	.
.	.	1c	.	2e\	De-	2g\	.
!	!	!	!	!	!	!LO:TX:b:t=Vertat(ur)	!
!	!	!	!	!LO:TX:t=P:problem:kreska pseudotaktowa	!	!LO:TX:t=P:problem:kreska pseudotaktowa	!
1GG	Ag-	.	.	0d	.	1dd	-i,
!	!	!LO:TX:t=P:problem:kreska pseudotaktowa	!	!	!	!	!
.	.	2B\	.	.	.	.	.
=48-	=48-	=48-	=48-	=48-	=48-	=48-	=48-
!LO:TX:t=P:problem:kreska pseudotaktowa	!	!	!	!	!	!	!
!	!	!	!	!	!	!LO:PB:g=original	!
1D	-n(us)	2A\	.	.	.	2r	.
.	.	2.d\	.	.	.	2a\	Ag-
!	!	!	!	!LO:PB:g=original	!	!	!
1r	.	.	.	2B/	.	1dd	-nus
.	.	4c\	.	.	.	.	.
.	.	2B\	.	2d\	.	.	.
=49-	=49-	=49-	=49-	=49-	=49-	=49-	=49-
!LO:TX:t=P:problem:kreska pseudotaktowa	!	!	!	!	!	!	!
1r	.	1A	.	2c,<\	-i	2.ee\	.
*	*	*	*	*	*Xij	*	*
.	.	.	.	2c\	qui	.	.
!	!	!	!	!	!	!LO:TX:t=P:problem:kreska pseudotaktowa	!
.	.	.	.	.	.	4dd\	De-
*	*ij	*	*	*	*	*	*
!	!	!LO:TX:t=P:problem:kreska pseudotaktowa	!	!	!	!	!
1C	Ag-	1G	-i.	1.g	tol-	4cc\	.
.	.	.	.	.	.	4b\	.
.	.	.	.	.	.	2cc\	.
=50-	=50-	=50-	=50-	=50-	=50-	=50-	=50-
!LO:TX:t=P:problem:kreska pseudotaktowa	!	!	!	!	!	!	!
1G	-n(us)	0r	.	.	.	2dd\	.
*	*Xij	*	*	*	*	*	*
!	!	!	!	!LO:TX:t=P:problem:kreska pseudotaktowa	!	!	!
.	.	.	.	2g\	-lis	2b\	.
!	!	!	!	!	!	!LO:TX:t=P:problem:kreska pseudotaktowa	!
2.A\	De-	.	.	2fny\	pec-	1a	-i
.	.	.	.	2e\	.	.	.
4G\	.	.	.	.	.	.	.
=51-	=51-	=51-	=51-	=51-	=51-	=51-	=51-
4F\	.	0r	.	0f	-ca-	2r	.
4E\	.	.	.	.	.	.	.
2F\	.	.	.	.	.	2a\	qui
2.D/	.	.	.	.	.	2a\	tol-
.	.	.	.	.	.	2a\	-lis
!LO:TX:t=P:problem:kreska pseudotaktowa	!	!	!	!	!	!	!
4C/	.	.	.	.	.	.	.
=52-	=52-	=52-	=52-	=52-	=52-	=52-	=52-
!	!	!LO:TX:t=P:problem:kreska pseudotaktowa	!	!	!	!	!
2BB/	.	1r	.	2g,>\	-ta	2b\	pec-
2GG/	.	.	.	2d\	qui	2b\	-ca-
0D	.	2r	.	2d\	tol-	0a	-ta
.	.	2A\	Qui	2d\	-lis	.	.
=53-	=53-	=53-	=53-	=53-	=53-	=53-	=53-
!	!	!	!	!	!	!LO:TX:t=P:problem:kreska pseudotaktowa	!
.	.	2A\	tol-	2f\	.	.	.
!	!	!LO:TX:t=P:problem:kreska pseudotaktowa	!	!LO:TX:t=P:problem:kreska pseudotaktowa	!	!	!
!	!	!LO:SIC:v:t=custos c	!	!	!	!	!
.	.	2A\	-lis	2f\	pec-	.	.
!	!	!LO:LB:g=original	!	!	!	!	!
4C/	.	2c\	pec-	2.e\	-ca-	2r	.
4BB/	.	.	.	.	.	.	.
4C/	.	2c\	-ca-	.	.	2g\	qui
!LO:TX:t=P:problem:kreska pseudotaktowa	!	!	!	!	!	!	!
!LO:SIC:v:t=custos E	!	!	!	!	!	!	!
4D/	.	.	.	4f\	-ta	.	.
=54-	=54-	=54-	=54-	=54-	=54-	=54-	=54-
!LO:LB:g=original	!	!	!	!	!	!	!
2E\	.	(2B\	-ta	2g\	mun-	2g\	tol-
2C/	.	2c\)	.	2e\	.	2g\	-lis
!LO:TX:t=P:problem:kreska pseudotaktowa	!	!	!	!	!	!	!
1GG	-i	2d\	mun-	1d	.	2b\	pec-
!	!	!	!	!	!	!LO:TX:t=P:problem:kreska pseudotaktowa	!
.	.	2B\	.	.	.	2b\	-ca-
=55-	=55-	=55-	=55-	=55-	=55-	=55-	=55-
!	!	!LO:TX:t=P:problem:kreska pseudotaktowa	!	!	!	!	!
2r	.	1A,<	-di	2c\	.	4cc\	-ta
.	.	.	.	.	.	4b\	.
2D\	qui	.	.	2d\	-di	4a\	.
.	.	.	.	.	.	4g\	.
2D\	tol-	1d	qui	2A,</	.	4f/	.
.	.	.	.	.	.	4e/	.
!LO:TX:t=P:problem:kreska pseudotaktowa	!	!	!	!LO:TX:t=P:problem:kreska pseudotaktowa	!	!	!
2D\	-lis	.	.	2A/	qui	4f/	.
.	.	.	.	.	.	4g/	.
=56-	=56-	=56-	=56-	=56-	=56-	=56-	=56-
!	!	!	!	!	!	!LO:TX:t=P:problem:kreska pseudotaktowa	!
2F\	pec-	(2c\	tol-	2A/	tol-	1a	.
!LO:TX:t=P:problem:kreska pseudotaktowa	!	!	!	!	!	!	!
2F\	-ca-	2d\)	.	2A/	-lis	.	.
2E\	-ta	2G/	-lis	2c/	pec-	2g/	.
!	!	!LO:TX:t=P:problem:kreska pseudotaktowa	!	!	!	!	!
2F\	.	2A\	pec-	2c/	-ca-	2f/	.
=57-	=57-	=57-	=57-	=57-	=57-	=57-	=57-
1G	mun-	2B\	-ca-	1B	ta	2d/	.
.	.	1G	.	.	.	2.dd\	.
!LO:TX:t=P:problem:kreska pseudotaktowa	!	!	!	!LO:TX:t=P:problem:kreska pseudotaktowa	!	!	!
1D	.	.	.	1A	.	.	.
.	.	.	.	.	.	4cc\	.
!	!	!LO:TX:t=P:problem:kreska pseudotaktowa	!	!	!	!	!
.	.	2F/	.	.	.	2a\	.
=58-	=58-	=58-	=58-	=58-	=58-	=58-	=58-
2GG,</	-di	4G/	.	2.G/	mun-	1.b	mun-
.	.	4A/	.	.	.	.	.
1G	pec-	4B/	.	.	.	.	.
.	.	4c/	.	4A/	.	.	.
.	.	2d\	.	4B/	.	.	.
.	.	.	.	4c/	.	.	.
2F\	.	2A,<\	-ta	2d\	.	2a\	.
=59-	=59-	=59-	=59-	=59-	=59-	=59-	=59-
!	!	!	!	!LO:TX:t=P:problem:kreska pseudotaktowa	!	!LO:TX:t=P:problem:kreska pseudotaktowa	!
2E\	-ca-	2B\	mun-	1G	-di	0g	-di
2C/	-ta	1c	.	.	.	.	.
1G	mun-	.	.	2r	.	.	.
!	!	!LO:TX:t=P:problem:kreska pseudotaktowa	!	!	!	!	!
.	.	2B\	.	2d\	pec-	.	.
=60-	=60-	=60-	=60-	=60-	=60-	=60-	=60-
!LO:TX:t=P:problem:kreska pseudotaktowa	!	!	!	!	!	!	!
1C	-di	2.c,<\	-di	1e	-ca-	2r	.
!	!	!	!	!	!	!LO:TX:t=P:problem:kreska pseudotaktowa	!
.	.	.	.	.	.	2g\	pec-
.	.	4A\	pec-	.	.	.	.
2r	.	(2B\	-ca-	2d\	-ta	2dd\	-ca-
2C/	pec-	2c\)	.	1c\	mun-	2ee\	-ta
=61-	=61-	=61-	=61-	=61-	=61-	=61-	=61-
2F\	ca-	(2A/	-ta	.	.	2cc\	mun-
!LO:TX:t=P:problem:kreska pseudotaktowa	!	!LO:TX:t=P:problem:kreska pseudotaktowa	!	!LO:TX:t=P:problem:kreska pseudotaktowa	!	!LO:TX:t=P:problem:kreska pseudotaktowa	!
2D\	-ta	2F/)	.	2f\	.	2dd\	.
*	*	*	*ij	*	*	*	*
!	!	!	!	!LO:LB:g=original	!	!LO:LB:g=original	!
2E\	.	1c	pec-	4e\	.	1.cc,<	-di
.	.	.	.	4d\	.	.	.
2.C/	mun-	.	.	4e\	.	.	.
.	.	.	.	4f\	.	.	.
=62-	=62-	=62-	=62-	=62-	=62-	=62-	=62-
!	!	!	!	!LO:TX:t=P:problem:kreska pseudotaktowa	!	!	!
.	.	2G/	-ca-	1g	-di	.	.
4BB/	.	.	.	.	.	.	.
2C/	.	2E,</	-ta	.	.	2g/	pec-
*	*	*	*Xij	*	*	*	*
!LO:TX:t=P:problem:kreska pseudotaktowa	!	!	!	!	!	!	!
1AA	-di	2.A/	mun-	2r	.	2cc\	.
.	.	.	.	2c/	pec-	2a\	.
.	.	4G/	.	.	.	.	.
=63-	=63-	=63-	=63-	=63-	=63-	=63-	=63-
2rBB	.	4G/	.	1.g	.	1b	-ca-
.	.	4F/	.	.	.	.	.
2GG/	pec-	2G/	.	.	.	.	.
!	!	!LO:TX:t=P:problem:kreska pseudotaktowa	!	!	!	!	!
1.C	.	1E	-di,	.	.	1g	.
.	.	.	.	2.e\	-ca-	.	.
=64-	=64-	=64-	=64-	=64-	=64-	=64-	=64-
.	.	2rE	.	.	.	2.cc\	-ta
.	.	.	.	4d\	.	.	.
!	!	!	!	!LO:TX:t=P:problem:kreska pseudotaktowa	!	!	!
2AA/	-ca-	2C/	pec-	2e\	.	.	.
.	.	.	.	.	.	4b\	.
!LO:TX:t=P:problem:kreska pseudotaktowa	!	!LO:TX:t=P:problem:kreska pseudotaktowa	!	!	!	!	!
!	!	!LO:SIC:v:t=custos D	!	!	!	!	!
1D	.	1F	-ca-	4f\	.	2a\	mun-
.	.	.	.	4e\	.	.	.
.	.	.	.	4d\	.	2.dd\	.
.	.	.	.	4c\	.	.	.
=65-	=65-	=65-	=65-	=65-	=65-	=65-	=65-
!	!	!LO:LB:g=original	!	!	!	!	!
1GG	.	2.D/	.	2B/	.	.	.
.	.	.	.	.	.	4cc\	.
.	.	.	.	2G/	.	2b\	.
.	.	4E/	.	.	.	.	.
!	!	!	!	!	!	!LO:TX:t=P:problem:kreska pseudotaktowa	!
2.D/	-ta	4F/	-ta	2A/	.	0a,<	-di
.	.	4G/	.	.	.	.	.
.	.	2.A/	.	2d/	.	.	.
8C/L	.	.	.	.	.	.	.
8BB/J	.	.	.	.	.	.	.
=66-	=66-	=66-	=66-	=66-	=66-	=66-	=66-
4AA/	.	.	.	2c/	.	.	.
4GG/	mun-	4B\	mun-	.	.	.	.
!	!	!LO:TX:t=P:problem:kreska pseudotaktowa	!	!LO:TX:t=P:problem:kreska pseudotaktowa	!	!	!
2AA/	.	2c\	.	2A/	-ta	.	.
!LO:TX:t=P:problem:kreska pseudotaktowa	!	!	!	!	!	!	!
!LO:SIC:v:t=custos G	!	!	!	!	!	!	!
0GG	-di.	2B,<\	-di	4d/	mun-	1b	do-
.	.	.	.	4c/	.	.	.
.	.	2d\	Do-	4B/	.	.	.
.	.	.	.	4A/	.	.	.
=67-	=67-	=67-	=67-	=67-	=67-	=67-	=67-
.	.	2d\	-na	2.B/	.	1dd	-na
.	.	2d\	no-	.	.	.	.
.	.	.	.	4c/	.	.	.
!LO:LB:g=original	!	!	!	!LO:TX:t=P:problem:kreska pseudotaktowa	!	!	!
2rF	.	2B\	-bis	1d	-di.	2dd\	no-
!LO:TX:t=P:problem:kreska pseudotaktowa	!	!	!	!	!	!	!
2G\	do-	2B\	pa-	.	.	2dd\	.
=68-	=68-	=68-	=68-	=68-	=68-	=68-	=68-
!	!	!LO:TX:t=P:problem:kreska pseudotaktowa	!	!	!	!	!
2G\	-na	1G	-cem	2r	.	1.b	-bis
!LO:TX:t=P:problem:kreska pseudotaktowa	!	!	!	!	!	!	!
2G\	no-	.	.	2g\	Do-	.	.
2E\	-bis	2rG	.	2g\	-na	.	.
*	*	*	*ij	*	*	*	*
!	!	!	!	!	!	!LO:TX:t=P:problem:kreska pseudotaktowa	!
2E\	pa-	2G/	do-	2g\	no-	2b\	pa-
=69-	=69-	=69-	=69-	=69-	=69-	=69-	=69-
2C,</	-cem	2G/	-na	2e\	-bis	1.cc	-cem
!LO:TX:t=P:problem:kreska pseudotaktowa	!	!	!	!	!	!	!
*	*ij	*	*	*	*	*	*
2C/	do-	2G/	no-	2e\	pa-	.	.
2C/	-na	2E/	-bis	2c/	.	.	.
*	*	*	*	*	*	*	*ij
!LO:TX:t=P:problem:kreska pseudotaktowa	!	!	!	!	!	!	!
2C/	no-	2E/	pa-	1G/	.	2cc\	do-
=70-	=70-	=70-	=70-	=70-	=70-	=70-	=70-
!	!	!LO:TX:t=P:problem:kreska pseudotaktowa	!	!	!	!	!
2BB-X/	-bis	0.D	-cem	.	.	2.dd\	-na
*	*	*	*Xij	*	*	*	*
!LO:TX:t=P:problem:kreska pseudotaktowa	!	!	!	!LO:TX:t=P:problem:kreska pseudotaktowa	!	!	!
2BB-/	pa-	.	.	2F/	.	.	.
.	.	.	.	.	.	4cc\	no-
2GG,</	-cem	.	.	4G/	.	4b\	.
*	*Xij	*	*	*	*	*	*
.	.	.	.	4A/	.	4a\	.
1G\	do-	.	.	4B/	.	2b\	-bis
.	.	.	.	4G/	.	.	.
=71-	=71-	=71-	=71-	=71-	=71-	=71-	=71-
.	.	.	.	1A	.	1a	pa-
!LO:TX:t=P:problem:kreska pseudotaktowa	!	!	!	!	!	!	!
2F\	-na	.	.	.	.	.	.
!	!	!	!	!	!	!LO:TX:t=P:problem:kreska pseudotaktowa	!
2.G\	no-	0r	.	2B/	.	1g	-cem
*	*	*	*	*	*	*	*Xij
!	!	!	!	!LO:TX:t=P:problem:kreska pseudotaktowa	!	!	!
.	.	.	.	2G/	.	.	.
4F\	.	.	.	.	.	.	.
=72-	=72-	=72-	=72-	=72-	=72-	=72-	=72-
4E\	.	.	.	2B/	.	2r	.
4D\	.	.	.	.	.	.	.
2C/	.	.	.	2c/	.	2.g/	do-
!LO:TX:t=P:problem:kreska pseudotaktowa	!	!	!	!	!	!	!
0.GG	-bis	2r	.	2B/	.	.	.
.	.	.	.	.	.	4a\	.
.	.	2G/	do-	2.d\	.	4b\	.
!	!	!	!	!	!	!LO:TX:t=P:problem:kreska pseudotaktowa	!
.	.	.	.	.	.	4cc\	.
=73-	=73-	=73-	=73-	=73-	=73-	=73-	=73-
.	.	2B\	-na	.	.	2dd\	na
.	.	.	.	4c/	.	.	.
.	.	2c\	no-	1c	.	1ee	no-
!	!	!LO:TX:t=P:problem:kreska pseudotaktowa	!	!	!	!	!
.	.	1d	bis	.	.	.	.
.	.	.	.	2B/	.	1dd\	.
=74-	=74-	=74-	=74-	=74-	=74-	=74-	=74-
*	*	*	*	*lig	*	*	*
!LO:TX:t=P:problem:kreska pseudotaktowa	!	!	!	!	!	!	!
0r	.	0r	.	1c	.	.	.
.	.	.	.	.	.	1cc	bis
.	.	.	.	1d	.	.	.
.	.	.	.	.	.	2b\	.
*	*	*	*	*Xlig	*	*	*
=75-	=75-	=75-	=75-	=75-	=75-	=75-	=75-
!	!	!	!	!LO:TX:t=P:problem:kreska pseudotaktowa	!	!	!
!	!	!LO:TX:t=P:problem:kreska pseudotaktowa	!	!LO:SIC:v:t=custos d	!	!	!
1C	do-	1r	.	0G	-cem	1cc	pa-
2C/	-na	2rG	.	.	.	2.g\	.
*	*	*	*ij	*	*	*	*
!LO:TX:t=P:problem:kreska pseudotaktowa	!	!	!	!	!	!	!
2C/	no-	2G/	do-	.	.	.	.
.	.	.	.	.	.	4a\	.
=76-	=76-	=76-	=76-	=76-	=76-	=76-	=76-
!	!	!	!	!LO:LB:g=original	!	!	!
2GG/	-bis	2G/	-na	2r	.	2b\	cem
!LO:TX:t=P:problem:kreska pseudotaktowa	!	!	!	!LO:TX:t=P:problem:kreska pseudotaktowa	!	!	!
2BBny/	pa-	2G/	no-	2d\	do-	2g\	.
!	!	!	!	!	!	!LO:TX:t=P:problem:kreska pseudotaktowa	!
2AA,</	-cem	2.C/	-bis	1.e	-na	1a	.
*	*ij	*	*	*	*	*	*
2AA/	no-	.	.	.	.	.	.
.	.	4D/	.	.	.	.	.
=77-	=77-	=77-	=77-	=77-	=77-	=77-	=77-
2AA/	-bis	2E/	pa-	.	.	2r	.
*	*	*	*	*	*	*	*ij
2AA/	pa-	2C,</	-cem	2e\	no-	2a\	do-
*lig	*	*	*Xij	*	*	*	*
1D	.	2F/	pa-	2f\	-bis	2a\	-na
!	!	!	!	!LO:TX:t=P:problem:kreska pseudotaktowa	!	!	!
.	.	2D/	.	2f\	pa-	2a\	no-
=78-	=78-	=78-	=78-	=78-	=78-	=78-	=78-
!LO:TX:t=P:problem:kreska pseudotaktowa	!	!LO:TX:t=P:problem:kreska pseudotaktowa	!	!	!	!	!
1GG	-cem	0D	-cem	2g,>\	-cem	2b\	-bis
.	.	.	.	2G/	do-	2b\	pa-
*Xlig	*Xij	*	*	*	*	*	*
!	!	!	!	!	!	!LO:TX:t=P:problem:kreska pseudotaktowa	!
2r	.	.	.	1.A	-na	1a	-cem
*	*	*	*	*	*	*	*Xij
2D\	Do-	.	.	.	.	.	.
=79-	=79-	=79-	=79-	=79-	=79-	=79-	=79-
2D\	-na	1rf	.	.	.	1dd	do-
!LO:TX:t=P:problem:kreska pseudotaktowa	!	!	!	!LO:TX:t=P:problem:kreska pseudotaktowa	!	!	!
2D\	no-	.	.	2A/	no-	.	.
2BB/	.	2rG	.	2.B/	-bis	2dd\	-na
*	*	*	*ij	*	*	*	*
!LO:TX:t=P:problem:kreska pseudotaktowa	!	!	!	!	!	!	!
2BB/	-bis	2D/	do-	.	.	2dd\	no-
.	.	.	.	4c/	pa-	.	.
=80-	=80-	=80-	=80-	=80-	=80-	=80-	=80-
1GG	pa-	2D/	-na	1d	.	1.b	-bis
.	.	2D/	no-	.	.	.	.
0.GG;>	-cem	2G/	-bis	0.B;>	-cem	.	.
.	.	2D/	pa-	.	.	2b\	pa-
=81-	=81-	=81-	=81-	=81-	=81-	=81-	=81-
!	!	!LO:N:vis=0.	!	!	!	!	!
.	.	0D;>	-cem	.	.	0g;>	-cem
*	*	*	*Xij	*	*	*	*
!LO:PB:g=original	!	!LO:LB:g=original	!	!LO:LB:g=original	!	!LO:LB:g=original	!
=82||	=82||	=82||	=82||	=82||	=82||	=82||	=82||
*-	*-	*-	*-	*-	*-	*-	*-
!!!system-decoration: [(s1,s2,s3,s4)]
!!!ENC: Marta Chmielewska
!!!END: 2021-03-18
!!!RDF**kern: < = below
!!!RDF**kern: > = above
!!!ENC: Tomasz Grochalski
!!!END: 2021-02-27
